X:39
T:McKenna's
R:reel
Z:Transcribed by Dave Marshall
M:C|
K:G
|: GBdB cAFA | ~G3B dBBA | GBdB cAFA | G2GF GDB,D | 
GBdB cAFA | GABc defg | afge fdcA | GBAF G4 :|
|: f~d3 fdef | ~g3f gbag | f~d3 fdcA | GBAF G2eg |
f~d3 fdef | ~g3f gbag | f2eg fdcA | GBAF G4 :|
